X:10620
T:B\aansull
T:Lullaby
C:anon., arr. Frank Nordberg
O:Norway
R:B\aansull (Baansull), lullaby
F:http://abc.musicaviva.com/tunes/norway/baansull03/baansull03-ddad1.abc
V:1 Program 1 25 up %Acoustic guitar
V:2 Program 1 25 merge down %Acoustic guitar
M:C
L:1/4
Q:1/4=160
K:Dm
V:1
dfe2|dfe2|dd/f/ef|dfe2|
V:2
[D,2D2A2]A2|[D,2D2A2]A2|[D,2D2A2]A2|[D,2D2A2]A2|
%
V:1
dfec|d2d2|dfe2|d2d2|]
V:2
[D,2D2A2]Az|[D,2D2A2][D2A2]|[D,2D2A2]A2|[D,4D4A4]|]
W:
W:
W:  From Musica Viva - http://www.musicaviva.com
W:  the Internet center for free sheet music downloads.
